X: 2
T: The Duke Of Leinster
R: reel
M: 4/4
L: 1/8
K: Gmaj
[G2G,2]BG dGBG|dBAB dBAB|[G3G,3]B d2eB|dBAB GEDE|[G2G,2]BG dGBG|dBAB dBAB|GB {c}(3BAB dB {c}(3BAB|(3dcB AB GEDE:||:dega bg{ga}g2|agbg ageg|dega bg{a}ge|(3dcB AB GEDE|dega bg{ga}g2|agbg agef|ga (3bag ef (3gfe|dBAB GEDE:||


Tune 1385	Setting 27160

